svg/color/bnbhedge.svg

<?xml version="1.0" encoding="UTF-8" ?>
<!DOCTYPE svg PUBLIC "-//W3C//DTD SVG 1.1//EN" "http://www.w3.org/Graphics/SVG/1.1/DTD/svg11.dtd">
<svg width="250pt" height="200pt" viewBox="0 0 250 200" version="1.1" xmlns="http://www.w3.org/2000/svg">
<g id="#feffffff">
<path fill="#feffff" opacity="1.00" d=" M 0.00 0.00 L 250.00 0.00 L 250.00 200.00 L 0.00 200.00 L 0.00 0.00 M 78.30 9.49 C 74.01 9.44 72.99 14.60 72.71 17.94 C 72.41 29.30 72.79 40.68 72.55 52.05 C 72.61 55.66 72.43 59.98 75.41 62.58 C 76.81 64.10 78.92 64.51 80.91 64.50 C 127.96 64.46 175.01 64.48 222.06 64.50 C 225.26 64.58 228.61 63.16 230.25 60.31 C 231.52 57.73 231.37 54.76 231.45 51.96 C 231.34 41.63 231.38 31.30 231.44 20.98 C 231.34 17.60 231.28 13.80 228.99 11.08 C 227.14 9.29 224.34 9.49 221.96 9.35 C 174.08 9.51 126.18 9.22 78.30 9.49 M 14.83 78.87 C 12.50 81.27 12.65 84.90 12.59 88.00 C 12.73 98.66 12.61 109.32 12.63 119.98 C 12.82 123.25 12.82 127.08 15.12 129.66 C 18.78 131.44 23.03 131.23 27.00 131.35 C 35.65 131.29 44.31 131.28 52.96 131.35 C 56.75 131.28 60.73 131.43 64.26 129.83 C 66.56 128.42 66.37 125.37 66.50 123.03 C 66.45 108.76 66.50 94.50 66.44 80.24 C 63.68 78.23 60.53 76.49 57.01 76.67 C 46.34 76.61 35.67 76.78 25.00 76.61 C 21.55 76.69 17.64 76.52 14.83 78.87 M 75.41 79.38 C 73.33 81.34 73.55 84.39 73.47 87.00 C 73.61 98.35 73.55 109.71 73.49 121.07 C 73.54 124.27 73.75 128.33 76.93 130.07 C 78.90 130.70 81.01 130.56 83.05 130.63 C 116.95 130.41 150.84 130.78 184.74 130.44 C 186.34 127.52 187.56 124.33 187.36 120.94 C 187.25 108.96 187.37 96.97 187.31 84.99 C 187.60 80.67 183.21 77.04 179.03 77.48 C 146.37 77.53 113.70 77.55 81.03 77.47 C 79.02 77.46 76.76 77.67 75.41 79.38 M 79.87 147.41 C 77.96 147.28 76.18 148.75 76.41 150.76 C 75.99 157.49 76.44 164.25 76.29 171.00 C 76.53 178.45 75.75 185.95 76.68 193.36 C 78.75 195.00 81.55 194.60 84.00 194.74 C 95.35 194.59 106.70 194.70 118.04 194.70 C 120.34 194.70 124.29 194.61 123.64 191.25 C 123.90 178.86 123.59 166.47 123.78 154.08 C 123.42 151.93 124.44 148.68 121.86 147.70 C 116.96 146.80 111.94 147.43 106.98 147.31 C 97.94 147.45 88.89 147.04 79.87 147.41 Z" />
</g>
<g id="#afecf4ff">
<path fill="#afecf4" opacity="1.00" d=" M 78.30 9.49 C 126.18 9.22 174.08 9.51 221.96 9.35 C 224.34 9.49 227.14 9.29 228.99 11.08 C 231.28 13.80 231.34 17.60 231.44 20.98 C 231.38 31.30 231.34 41.63 231.45 51.96 C 231.37 54.76 231.52 57.73 230.25 60.31 C 228.61 63.16 225.26 64.58 222.06 64.50 C 175.01 64.48 127.96 64.46 80.91 64.50 C 78.92 64.51 76.81 64.10 75.41 62.58 C 72.43 59.98 72.61 55.66 72.55 52.05 C 72.79 40.68 72.41 29.30 72.71 17.94 C 72.99 14.60 74.01 9.44 78.30 9.49 M 79.25 12.40 C 76.69 12.94 75.12 15.44 75.31 17.98 C 75.18 29.98 75.37 41.99 75.24 54.00 C 75.44 56.03 74.92 58.77 76.97 60.03 C 79.08 61.33 81.67 61.31 84.07 61.43 C 129.40 61.35 174.74 61.39 220.07 61.41 C 223.34 61.22 229.06 60.59 228.51 56.07 C 228.72 44.72 228.41 33.36 228.63 22.01 C 228.58 19.13 229.00 15.52 226.19 13.71 C 221.21 10.08 214.70 12.21 209.03 11.89 C 202.67 11.45 196.34 12.57 189.99 12.21 C 179.03 11.14 168.00 11.89 157.01 11.64 C 150.32 11.41 143.63 12.30 136.94 11.84 C 122.97 11.19 108.98 12.20 95.01 11.83 C 89.76 11.72 84.39 11.05 79.25 12.40 Z" />
<path fill="#afecf4" opacity="1.00" d=" M 14.83 78.87 C 17.64 76.52 21.55 76.69 25.00 76.61 C 35.67 76.78 46.34 76.61 57.01 76.67 C 60.53 76.49 63.68 78.23 66.44 80.24 C 66.50 94.50 66.45 108.76 66.50 123.03 C 66.37 125.37 66.56 128.42 64.26 129.83 C 60.73 131.43 56.75 131.28 52.96 131.35 C 44.31 131.28 35.65 131.29 27.00 131.35 C 23.03 131.23 18.78 131.44 15.12 129.66 C 12.82 127.08 12.82 123.25 12.63 119.98 C 12.61 109.32 12.73 98.66 12.59 88.00 C 12.65 84.90 12.50 81.27 14.83 78.87 M 15.79 85.98 C 15.63 96.31 15.89 106.64 15.69 116.98 C 15.51 120.58 16.46 124.10 17.98 127.34 C 30.34 127.41 42.71 127.29 55.07 127.42 C 57.83 127.38 61.45 127.44 63.02 124.69 C 63.96 118.19 63.13 111.58 63.38 105.03 C 63.14 97.44 63.89 89.79 63.08 82.23 C 61.37 80.29 58.35 80.82 56.03 80.59 C 44.00 80.79 31.97 80.45 19.95 80.73 C 17.10 80.51 15.60 83.50 15.79 85.98 Z" />
<path fill="#afecf4" opacity="1.00" d=" M 75.41 79.38 C 76.76 77.67 79.02 77.46 81.03 77.47 C 113.70 77.55 146.37 77.53 179.03 77.48 C 183.21 77.04 187.60 80.67 187.31 84.99 C 187.37 96.97 187.25 108.96 187.36 120.94 C 187.56 124.33 186.34 127.52 184.74 130.44 C 150.84 130.78 116.95 130.41 83.05 130.63 C 81.01 130.56 78.90 130.70 76.93 130.07 C 73.75 128.33 73.54 124.27 73.49 121.07 C 73.55 109.71 73.61 98.35 73.47 87.00 C 73.55 84.39 73.33 81.34 75.41 79.38 M 77.50 81.56 C 75.72 90.93 76.96 100.51 76.60 109.98 C 76.87 115.60 75.12 122.11 79.37 126.68 C 108.59 126.35 137.82 126.63 167.04 126.53 C 171.68 126.39 176.42 127.11 180.99 126.06 C 184.50 123.99 183.30 119.35 183.52 115.98 C 182.94 104.48 184.46 92.85 182.64 81.44 C 157.43 81.29 132.23 80.86 107.02 81.31 C 97.19 80.45 87.35 81.67 77.50 81.56 Z" />
<path fill="#afecf4" opacity="1.00" d=" M 79.87 147.41 C 88.89 147.04 97.94 147.45 106.98 147.31 C 111.94 147.43 116.96 146.80 121.86 147.70 C 124.44 148.68 123.42 151.93 123.78 154.08 C 123.59 166.47 123.90 178.86 123.64 191.25 C 124.29 194.61 120.34 194.70 118.04 194.70 C 106.70 194.70 95.35 194.59 84.00 194.74 C 81.55 194.60 78.75 195.00 76.68 193.36 C 75.75 185.95 76.53 178.45 76.29 171.00 C 76.44 164.25 75.99 157.49 76.41 150.76 C 76.18 148.75 77.96 147.28 79.87 147.41 Z" />
</g>
<g id="#60cadeff">
<path fill="#60cade" opacity="1.00" d=" M 79.25 12.40 C 84.39 11.05 89.76 11.72 95.01 11.83 C 108.98 12.20 122.97 11.19 136.94 11.84 C 143.63 12.30 150.32 11.41 157.01 11.64 C 168.00 11.89 179.03 11.14 189.99 12.21 C 196.34 12.57 202.67 11.45 209.03 11.89 C 214.70 12.21 221.21 10.08 226.19 13.71 C 229.00 15.52 228.58 19.13 228.63 22.01 C 228.41 33.36 228.72 44.72 228.51 56.07 C 229.06 60.59 223.34 61.22 220.07 61.41 C 174.74 61.39 129.40 61.35 84.07 61.43 C 81.67 61.31 79.08 61.33 76.97 60.03 C 74.92 58.77 75.44 56.03 75.24 54.00 C 75.37 41.99 75.18 29.98 75.31 17.98 C 75.12 15.44 76.69 12.94 79.25 12.40 M 77.49 16.71 C 77.56 30.20 77.66 43.68 77.44 57.16 C 79.52 58.00 81.69 58.71 83.96 58.62 C 130.50 58.47 177.04 58.64 223.58 58.53 C 224.20 57.87 224.81 57.21 225.43 56.54 C 225.44 43.31 225.36 30.08 225.48 16.85 C 223.49 15.71 221.37 14.57 219.00 14.69 C 177.67 14.76 136.34 14.70 95.01 14.72 C 89.14 14.81 82.88 13.82 77.49 16.71 Z" />
<path fill="#60cade" opacity="1.00" d=" M 15.79 85.98 C 15.60 83.50 17.10 80.51 19.95 80.73 C 31.97 80.45 44.00 80.79 56.03 80.59 C 58.35 80.82 61.37 80.29 63.08 82.23 C 63.89 89.79 63.14 97.44 63.38 105.03 C 63.13 111.58 63.96 118.19 63.02 124.69 C 61.45 127.44 57.83 127.38 55.07 127.42 C 42.71 127.29 30.34 127.41 17.98 127.34 C 16.46 124.10 15.51 120.58 15.69 116.98 C 15.89 106.64 15.63 96.31 15.79 85.98 Z" />
<path fill="#60cade" opacity="1.00" d=" M 77.50 81.56 C 87.35 81.67 97.19 80.45 107.02 81.31 C 132.23 80.86 157.43 81.29 182.64 81.44 C 184.46 92.85 182.94 104.48 183.52 115.98 C 183.30 119.35 184.50 123.99 180.99 126.06 C 176.42 127.11 171.68 126.39 167.04 126.53 C 137.82 126.63 108.59 126.35 79.37 126.68 C 75.12 122.11 76.87 115.60 76.60 109.98 C 76.96 100.51 75.72 90.93 77.50 81.56 Z" />
</g>
<g id="#02a5c2ff">
<path fill="#02a5c2" opacity="1.00" d=" M 77.49 16.71 C 82.88 13.82 89.14 14.81 95.01 14.72 C 136.34 14.70 177.67 14.76 219.00 14.69 C 221.37 14.57 223.49 15.71 225.48 16.85 C 225.36 30.08 225.44 43.31 225.43 56.54 C 224.81 57.21 224.20 57.87 223.58 58.53 C 177.04 58.64 130.50 58.47 83.96 58.62 C 81.69 58.71 79.52 58.00 77.44 57.16 C 77.66 43.68 77.56 30.20 77.49 16.71 Z" />
</g>
</svg>

<?xml version="1.0" encoding="utf-8"?>
<!-- Generator: Adobe Illustrator 26.0.3, SVG Export Plug-In . SVG Version: 6.00 Build 0)  -->
<svg version="1.1" id="Layer_1" xmlns="http://www.w3.org/2000/svg" xmlns:xlink="http://www.w3.org/1999/xlink" x="0px" y="0px"
	 viewBox="0 0 250 200" style="enable-background:new 0 0 250 200;" xml:space="preserve">
<style type="text/css">
	.st0{fill:#FEFFFF;}
	.st1{fill:#AFECF4;}
	.st2{fill:#60CADE;}
	.st3{fill:#02A5C2;}
</style>
<g id="_x23_feffffff">
	<path class="st0" d="M250,200H0V0 M0,0h250 M78.3,9.5c-4.3-0.1-5.3,5.1-5.6,8.5c-0.3,11.4,0.1,22.7-0.2,34.1
		c0.1,3.6-0.1,7.9,2.9,10.5c1.4,1.5,3.5,1.9,5.5,1.9c47,0,94.1,0,141.1,0c3.2,0.1,6.6-1.3,8.2-4.2c1.3-2.6,1.1-5.6,1.2-8.4
		c-0.1-10.3-0.1-20.7,0-31c-0.1-3.4-0.2-7.2-2.4-9.9c-1.9-1.8-4.7-1.6-7-1.7C174.1,9.5,126.2,9.2,78.3,9.5 M14.8,78.9
		c-2.3,2.4-2.2,6-2.2,9.1c0.1,10.7,0,21.3,0,32c0.2,3.3,0.2,7.1,2.5,9.7c3.7,1.8,7.9,1.6,11.9,1.7c8.7-0.1,17.3-0.1,26,0
		c3.8-0.1,7.8,0.1,11.3-1.5c2.3-1.4,2.1-4.5,2.2-6.8c-0.1-14.3,0-28.5-0.1-42.8c-2.8-2-5.9-3.8-9.4-3.6c-10.7-0.1-21.3,0.1-32-0.1
		C21.5,76.7,17.6,76.5,14.8,78.9 M75.4,79.4c-2.1,2-1.9,5-1.9,7.6c0.1,11.3,0.1,22.7,0,34.1c0.1,3.2,0.3,7.3,3.4,9
		c2,0.6,4.1,0.5,6.1,0.6c33.9-0.2,67.8,0.1,101.7-0.2c1.6-2.9,2.8-6.1,2.6-9.5c-0.1-12,0-24-0.1-36c0.3-4.3-4.1-7.9-8.3-7.5
		c-32.7,0-65.3,0.1-98,0C79,77.5,76.8,77.7,75.4,79.4 M79.9,147.4c-1.9-0.1-3.7,1.3-3.5,3.3c-0.4,6.7,0,13.5-0.1,20.2
		c0.2,7.4-0.5,14.9,0.4,22.4c2.1,1.6,4.9,1.2,7.3,1.4c11.3-0.2,22.7,0,34,0c2.3,0,6.2-0.1,5.6-3.4c0.3-12.4-0.1-24.8,0.1-37.2
		c-0.4-2.2,0.7-5.4-1.9-6.4c-4.9-0.9-9.9-0.3-14.9-0.4C97.9,147.4,88.9,147,79.9,147.4z"/>
</g>
<g id="_x23_afecf4ff">
	<path class="st1" d="M78.3,9.5c47.9-0.3,95.8,0,143.7-0.1c2.4,0.1,5.2-0.1,7,1.7c2.3,2.7,2.3,6.5,2.4,9.9c-0.1,10.3-0.1,20.7,0,31
		c-0.1,2.8,0.1,5.8-1.2,8.4c-1.6,2.8-5,4.3-8.2,4.2c-47.1,0-94.1,0-141.1,0c-2,0-4.1-0.4-5.5-1.9c-3-2.6-2.8-6.9-2.9-10.5
		c0.2-11.4-0.1-22.8,0.2-34.1C73,14.6,74,9.4,78.3,9.5 M79.2,12.4c-2.6,0.5-4.1,3-3.9,5.6c-0.1,12,0.1,24-0.1,36
		c0.2,2-0.3,4.8,1.7,6c2.1,1.3,4.7,1.3,7.1,1.4c45.3-0.1,90.7,0,136,0c3.3-0.2,9-0.8,8.4-5.3c0.2-11.3-0.1-22.7,0.1-34.1
		c-0.1-2.9,0.4-6.5-2.4-8.3c-5-3.6-11.5-1.5-17.2-1.8c-6.4-0.4-12.7,0.7-19,0.3c-11-1.1-22-0.3-33-0.6c-6.7-0.2-13.4,0.7-20.1,0.2
		c-14-0.7-28,0.4-41.9,0C89.8,11.7,84.4,11.1,79.2,12.4z"/>
	<path class="st1" d="M14.8,78.9c2.8-2.4,6.7-2.2,10.2-2.3c10.7,0.2,21.3,0,32,0.1c3.5-0.2,6.7,1.6,9.4,3.6
		c0.1,14.3,0,28.5,0.1,42.8c-0.1,2.3,0.1,5.4-2.2,6.8c-3.5,1.6-7.5,1.4-11.3,1.5c-8.6-0.1-17.3-0.1-26,0c-4-0.1-8.2,0.1-11.9-1.7
		c-2.3-2.6-2.3-6.4-2.5-9.7c0-10.7,0.1-21.3,0-32C12.6,84.9,12.5,81.3,14.8,78.9 M15.8,86c-0.2,10.3,0.1,20.7-0.1,31
		c-0.2,3.6,0.8,7.1,2.3,10.4c12.4,0.1,24.7,0,37.1,0.1c2.8,0,6.4,0,8-2.7c0.9-6.5,0.1-13.1,0.4-19.7c-0.2-7.6,0.5-15.2-0.3-22.8
		c-1.7-1.9-4.7-1.4-7.1-1.6C44,80.8,32,80.4,20,80.7C17.1,80.5,15.6,83.5,15.8,86z"/>
	<path class="st1" d="M75.4,79.4c1.3-1.7,3.6-1.9,5.6-1.9c32.7,0.1,65.3,0.1,98,0c4.2-0.4,8.6,3.2,8.3,7.5c0.1,12-0.1,24,0.1,36
		c0.2,3.4-1,6.6-2.6,9.5c-33.9,0.3-67.8,0-101.7,0.2c-2-0.1-4.2,0.1-6.1-0.6c-3.2-1.7-3.4-5.8-3.4-9c0.1-11.4,0.1-22.7,0-34.1
		C73.6,84.4,73.3,81.3,75.4,79.4 M77.5,81.6c-1.8,9.4-0.5,19-0.9,28.4c0.3,5.6-1.5,12.1,2.8,16.7c29.2-0.3,58.5-0.1,87.7-0.2
		c4.6-0.1,9.4,0.6,14-0.5c3.5-2.1,2.3-6.7,2.5-10.1c-0.6-11.5,0.9-23.1-0.9-34.5c-25.2-0.2-50.4-0.6-75.6-0.1
		C97.2,80.4,87.3,81.7,77.5,81.6z"/>
	<path class="st1" d="M79.9,147.4c9-0.4,18.1,0,27.1-0.1c5,0.1,10-0.5,14.9,0.4c2.6,1,1.6,4.2,1.9,6.4c-0.2,12.4,0.1,24.8-0.1,37.2
		c0.7,3.4-3.3,3.4-5.6,3.4c-11.3,0-22.7-0.1-34,0c-2.4-0.1-5.2,0.3-7.3-1.4c-0.9-7.4-0.2-14.9-0.4-22.4c0.2-6.8-0.3-13.5,0.1-20.2
		C76.2,148.8,78,147.3,79.9,147.4z"/>
</g>
<g id="_x23_60cadeff">
	<path class="st2" d="M79.2,12.4c5.1-1.3,10.5-0.7,15.8-0.6c14,0.4,28-0.6,41.9,0c6.7,0.5,13.4-0.4,20.1-0.2c11,0.2,22-0.5,33,0.6
		c6.3,0.4,12.7-0.8,19-0.3c5.7,0.3,12.2-1.8,17.2,1.8c2.8,1.8,2.4,5.4,2.4,8.3c-0.2,11.4,0.1,22.7-0.1,34.1c0.6,4.5-5.2,5.2-8.4,5.3
		c-45.3,0-90.7-0.1-136,0c-2.4-0.1-5-0.1-7.1-1.4c-2.1-1.3-1.5-4-1.7-6c0.1-12-0.1-24,0.1-36C75.1,15.4,76.7,12.9,79.2,12.4
		 M77.5,16.7c0.1,13.5,0.2,27,0,40.5c2.1,0.8,4.2,1.5,6.5,1.5c46.5-0.1,93.1,0,139.6-0.1c0.6-0.7,1.2-1.3,1.8-2
		c0-13.2-0.1-26.5,0.1-39.7c-2-1.1-4.1-2.3-6.5-2.2c-41.3,0.1-82.7,0-124,0C89.1,14.8,82.9,13.8,77.5,16.7z"/>
	<path class="st2" d="M15.8,86c-0.2-2.5,1.3-5.5,4.2-5.2c12-0.3,24,0.1,36.1-0.1c2.3,0.2,5.3-0.3,7.1,1.6c0.8,7.6,0.1,15.2,0.3,22.8
		c-0.2,6.6,0.6,13.2-0.4,19.7c-1.6,2.8-5.2,2.7-8,2.7c-12.4-0.1-24.7,0-37.1-0.1c-1.5-3.2-2.5-6.8-2.3-10.4
		C15.9,106.6,15.6,96.3,15.8,86z"/>
	<path class="st2" d="M77.5,81.6c9.8,0.1,19.7-1.1,29.5-0.2c25.2-0.4,50.4,0,75.6,0.1c1.8,11.4,0.3,23,0.9,34.5
		c-0.2,3.4,1,8-2.5,10.1c-4.6,1.1-9.3,0.3-14,0.5c-29.2,0.1-58.4-0.2-87.7,0.2c-4.2-4.6-2.5-11.1-2.8-16.7
		C77,100.5,75.7,90.9,77.5,81.6z"/>
</g>
<g id="_x23_02a5c2ff">
	<path class="st3" d="M77.5,16.7c5.4-2.9,11.7-1.9,17.5-2c41.3,0,82.7,0,124,0c2.4-0.1,4.5,1,6.5,2.2c-0.1,13.2,0,26.5-0.1,39.7
		c-0.6,0.7-1.2,1.3-1.8,2C177,58.6,130.5,58.5,84,58.6c-2.3,0.1-4.4-0.6-6.5-1.5C77.7,43.7,77.6,30.2,77.5,16.7z"/>
</g>
</svg>
